X:0
T:Cleanse the Palate
M:C|
C:© Paul Gitlitz 2007
R:Reel
K:Bb
"Dm"DFAc "Bb"B2Bc|"Bb"dcBA "Gm"G2F2|"Dm"DFAc "Bb"B2AB|"F"cB AG"Bb"F2DE|!
"F"F2Ac "Bb"B2Bc|"Bb"dcBA "Gm"G2F2|"Cm"e2ce "Eb"defe|"F"dcBA "Bb"B4:|!
|:"Gm"b2gb "Dm"a2fa|"Eb"gfeg"Bb"f4|"Cm"e2ce "Bb"d2Bd|"F"cBAG "Bb"F4|!
"Gm"GABG "F"ABcA|"Bb"BcdB "Cm"cdec|"Bb"dgfe "F7"dcBA| "Bb"[D8B8]:|]
